X:1
T:Title
%%score 1 2 3
L:1/8
M:2/2
K:C
V:1 treble nm="Part_1"
V:2 treble-8 nm="Part_2"
V:3 treble-8 nm="Part_3"
V:1
 G8 | G4 G4 | G8 | F4 G4 | A8 | G8 | z4 F4 | F2 G2 A4 | _B4 G4- | G4 F4 | G8 | z4 G4 | G8 | A8 | %14
 G4 F4- | F4 E4 | F8 | G8 | F4 G4 | A8 | c8 | B8 | G8 | z4 B4 | c8 | A4 B4- | B4 G4- | G4 F4 | %28
 G8 |] %29
V:2
 d8 | d4 d4 | e8 | z4 e4 | d8 | G8 | z4 _B4 | G8 | g4 d4- | d4 c4 | d8- | d8 | e8 | c8 | d4 c4- | %15
 c4 B4 | c8 | e8 | d4 c4 | F8 | A8 | G8 | c8 | G8 | g4 f4- | f4 e4 | d4 d4- | d4 c4 | d8 |] %29
V:3
 G8 | B4 B4 | c8 | d4 e4 | f8 | g8 | d8 | d8 | G8 | A8 | G8- | G8 | z4 E4 | F8 | B4 A4 | G8 | F8 | %17
 c8 | d4 e4 | f8 | c8 | d8 | e8 | d8 | c4 F4- | F4 G4- | G4 B4 | A8 | G8 |] %29

